X: 04044
T: JOHN McCUTCHEON'S REEL
C: Bob McQuillen 2 Aug 79
B: Bob's Note Book 04 #44
R: reel
Z: 2020 John Chambers <jc:trillian.mit.edu>
M: C
L: 1/8
K: A
|:E2AB cBAc | efec B2A2 | e2af ecef | =gagf e4 |
| E2AB cBAc | efec B2Ac | e2af ecAc | BA=GB A4 :|
|:e2af ecAB | cABc d2cd | e2af ecAc | BA=GB c2Ac |
| e2af ecAB | cABc dBcd | efed cABA | =GABG A4 :|
%%begintext align
%% For the below named gentleman
%% (obviously!) with my very
%% Best Wishes and love for a
%% great guy -- I sure do enjoy
%% our happy times together.
%%endtext

%%sep 1 1 500

%%sep 1 1 500

